X:89
T:Jackie Stewart's new Reel. Ru2.089
%%VWML:RutherfordVol2-2249-p45-0
F:http://www.vwml.org/record/RutherfordVol2/2249/p45
B:RUTHERFORD Complete Collection of 200 Country Dances Vol.2; 1759.
Z:vmp.Mike Hicken 2015 www.village-music-project.org.uk
N: The final symbol of dance notation in the original is :|
M:C
R:Reel
Q:1/4=140
K:C
|:cg2e gcge|cg2e dBGB|cg2e gcge|a^fge dBGB :|
|: ceAe ceAe|ceAe d/c/B/A/ GB|ceAe ceAg|a^fge dBGB :|
W:
W: Foot it & cast off two Cu: .|  Cast up again :|  cross
W: over two Cu: .|.  Lead to the top foot it & cast off :|.
W: foot it corners & turn .||.  Lead out sides & turn :|
T:Swan. Ru2.090, The
L:1/8
B:RUTHERFORD Complete Collection of 200 Country Dances Vol.2; 1759.
Z:vmp.Mike Hicken 2015 www.village-music-project.org.uk
N: * In the original this note is shown as a dotted crotchet. The first and second time bars have
N: been added to give the correct change to the second part.
N: The final symbol of dance notation in the original is :|
M:2/4
Q:1/4=140
K:G
|:D|G2 GB|AF D2 |A2 Ac|BGGB|c2 ce|dBAG|AcBA|1 "*"G3 :|2 G4 ||
|: d2 dg|fe d2|cABG|AFED|d2 dg|fedc|BGAF|G2G,2 :|
|: BGAc|BGAc|BGdG|A/G/F/E/ D2|BGAc|BGAc|BdgA|G2 G,2 :|
W:
W: First Cu: foot it to the 2d Wo. & turn 3 .|  the
W: same to the 2d Man :|  cross over two Cu: lead to
W: the top & cast off .|.  Hands round 4 at bottom .|.
W: Right & Left at top :|
